!!!COM: Palestrina, Giovanni Perluigi da
!!!OPR: Primi toni
!!!OTL: Credo
**kern	**kern	**kern	**kern
*Ibass	*Itenor	*Icalto	*Icant
!Bassus	!Tenor	!Altus	!Cantus
*clefF4	*clefGv2	*clefG2	*clefG2
*k[b-]	*k[b-]	*k[b-]	*k[b-]
*G:dor	*G:dor	*G:dor	*G:dor
*M4/2	*M4/2	*M4/2	*M4/2
=1	=1	=1	=1
1r	1G	1r	1r
1G	2.B-	1d	1g
.	4c	.	.
=2	=2	=2	=2
2G	2d	2g	2b-
2c	2e	2g	2cc
2B-	2f	2b-	2dd
2G	2g	2b-	2dd
=3	=3	=3	=3
1B-	1f	1b-	1dd
2F	2f	2a	2cc
2B-	2f	2b-	2dd
=4	=4	=4	=4
2c	2e	2a	2ee
2A	2c	2a	2ff#
1G	2d	1b-	1gg
.	[2d	.	.
=5	=5	=5	=5
1d	4d]	2a	1.ff
.	4e	.	.
.	4f	4d	.
.	4g	4e	.
1D	2a	4f	.
.	.	4g	.
.	2A	[2a	2dd
=6	=6	=6	=6
1C	1c	2a]	1ee-
.	.	1g	.
1D	1A	.	1dd
.	.	2f#	.
=7	=7	=7	=7
2.D	2.f	2.a	2.dd
4D	4f	4a	4dd
2D	2f	2a	2dd
2D	2f	2a	2dd
=8	=8	=8	=8
2A	2e	1a	2cc
1d	1f	.	1a
.	.	2d	.
2G	2g	2d	2b-
=9	=9	=9	=9
2A	2e	1a	2cc
1d	1f	.	1dd
.	.	2a	.
2A	2e	2a	2cc
=10	=10	=10	=10
2B-	2d	2f	2b-
2c	2c	2e	1a
2d	2.B-	4f	.
.	.	4e-	.
2d	.	4d	[2g
.	8A	4c	.
.	8G	.	.
=11	=11	=11	=11
1D	2A	2d	2g]
.	2A	2d	2f#
2r	1G	1d	1g
[2G	.	.	.
=12	=12	=12	=12
2G]	2.d	0r	0r
2F	.	.	.
.	4d	.	.
2G	2d	.	.
2A	2c	.	.
=13	=13	=13	=13
2B-	2d	1r	1r
2G	2e	.	.
2F	1f	1a	2r
2F	.	.	[2ff
=14	=14	=14	=14
1A	2c	2a	2ff]
.	2c	2.a	2ee
1B-	1d	.	1dd
.	.	8g	.
.	.	8f	.
.	.	2g	.
=15	=15	=15	=15
1F	1f	2a	2cc
.	.	2.a	2.cc
1r	1r	.	.
.	.	4a	4cc
.	.	2f	2dd
=16	=16	=16	=16
0r	0r	2g	2b-
.	.	2a	2cc
.	.	2.b-	2.dd
.	.	4a	4cc
=17	=17	=17	=17
1r	2r	2g	2b-
.	1d	2f#	2a
[1G	.	2g	2g
.	2G	[2g	2b
=18	=18	=18	=18
2G]	2d	2g]	2b
2C	2e-	2g	1cc
2G	1d	2g	.
2G	.	2g	2b
=19	=19	=19	=19
1c	1e	1g	1cc
2F	2f	2a	1cc
2F	2f	2a	.
=20	=20	=20	=20
2G	2e-	2g	0r
2.B-	2.d	2.f	.
4A	4c	4f	.
2G	2B-	2b-	.
=21	=21	=21	=21
2F	2c	2a	1r
2E-	2c	2g	.
1D	2d	2f	2r
.	2d	2a	2ff
=22	=22	=22	=22
0r	2c#	2a	2ee
.	2d	2a	2ff
.	1B-	1b-	1dd
=23	=23	=23	=23
1F	2f	2a	2cc
.	2F	2a	2cc
2E	2G	2g	2cc
2F	2A	2f	2cc
=24	=24	=24	=24
2D	2A	2f	2ff
2D	2B	2d	2ff
2C	1c	1g	1ee
[2c	.	.	.
=25	=25	=25	=25
2c]	2e	2g	2cc
2A	2f	2a	2cc
1B-	1d	2f	1dd
.	.	2g	.
=26	=26	=26	=26
2A	2e	1a	2cc
2F	2f	.	2cc
2G	2d	2g	2b-
2B-	[2d	2d	2g
=27	=27	=27	=27
1A	4d]	1e	1a
.	8c	.	.
.	8B	.	.
.	2c#	.	.
2D	1d	1f	[1a
[2d	.	.	.
=28	=28	=28	=28
2d]	1A	2r	1a]
2c	.	1a	.
2A	1r	.	1r
2B	.	2g	.
=29	=29	=29	=29
2c	0r	2e	1r
2d	.	2f#	.
2.G	.	2g	2r
.	.	2g	[2dd
4A	.	.	.
=30	=30	=30	=30
2B-	0r	2.f	2dd]
2A	.	.	2cc
.	.	4f	.
2F	.	2f	2a
2G	.	2d	2b
=31	=31	=31	=31
2C	1r	2e	2cc
2D	.	2f#	2a
1G	2r	1g	1b-
.	[2d	.	.
=32	=32	=32	=32
1A	2d]	2e	1a
.	2c	1a	.
1r	2A	.	1r
.	2B	2g	.
=33	=33	=33	=33
0r	2c	2e	2r
.	2d	2f#	1dd
.	2B-	2g	.
.	2A	[2a	2cc
=34	=34	=34	=34
1.d	2.f	2a]	1a
.	.	4d	.
.	4e	4e	.
.	2d	4f	2b
.	.	4g	.
2c	2e	[2a	[2cc
=35	=35	=35	=35
2A	1f	2a]	2cc]
2B	.	4g	2dd
.	.	4f	.
2c	2e	1a	2ee
[2d	2d	.	[2ff
=36	=36	=36	=36
2d]	1f	0a	4ff]
.	.	.	4ee
2D	.	.	1dd
1A	1e	.	.
.	.	.	2cc#
=37	=37	=37	=37
2r	2d	2r	1dd
2B-	2d	2f	.
2B-	2d	2f	2r
2B-	2d	2f	2b-
=38	=38	=38	=38
1G	1d	1g	2b-
.	.	.	2b-
2F	2.f	2a	1cc
2F	.	2a	.
.	4f	.	.
=39	=39	=39	=39
1B-	1f	1b-	2dd
.	.	.	2dd
2r	2r	2r	1b-
2B-	2d	2f	.
=40	=40	=40	=40
2B-	2d	2f	2r
2B-	2d	2f	2b-
1B-	1d	1f	2b-
.	.	.	2b-
=41	=41	=41	=41
2G	2d	2g	1b-
2G	2d	2g	.
1F	1f	1a	2cc
.	.	.	2cc
=42	=42	=42	=42
1B-	1.f	1b-	1dd
1B-	.	1b-	2dd
.	2d	.	2dd
=43	=43	=43	=43
1E-	1e-	1g	2cc
.	.	.	1b-
1F	2d	2f	.
.	[2c	2f	2a
=44	=44	=44	=44
1G	4c]	4e-	0g
.	4B-	4d	.
.	2B-	2.d	.
1E-	1G	.	.
.	.	8c	.
.	.	8B-	.
.	.	2c	.
=45	=45	=45	=45
0D	0A	0d	0f#
=46	=46	=46	=46
0r	0r	1d	1r
.	.	[1f	1a
=47	=47	=47	=47
0r	0r	2f]	2a
.	.	2d	2b-
.	.	1f	2a
.	.	.	[2dd
=48	=48	=48	=48
1A	1r	1e	4dd]
.	.	.	8cc
.	.	.	8b
.	.	.	2cc#
[1B-	2r	1d	1dd
.	2d	.	.
=49	=49	=49	=49
2B-]	2d	0r	0r
2G	2e-	.	.
1B-	2d	.	.
.	[2g	.	.
=50	=50	=50	=50
1A	4g]	1r	2.a
.	8f	.	.
.	8e	.	.
.	2f#	.	.
.	.	.	4a
[1G	1g	2r	[1b-
.	.	[2d	.
=51	=51	=51	=51
1G]	0r	4d]	2b-]
.	.	4d	.
.	.	2e-	2g
1r	.	2d	1b-
.	.	[2g	.
=52	=52	=52	=52
1D	1d	2g]	1a
.	.	2f#	.
[1E-	1B-	1g	1g
=53	=53	=53	=53
2E-]	2G	1g	2r
2C	2.e-	.	2cc
1E-	.	2g	2b-
.	4d	.	.
.	[2c	2g	2cc
=54	=54	=54	=54
0D	2c]	1f	1dd
.	4B	.	.
.	4A	.	.
.	2B	1f	1dd
.	2B	.	.
=55	=55	=55	=55
1C	1c	1e	1g
1r	1r	1r	1r
=56	=56	=56	=56
1C	1e	1g	1cc
2C	2e	2g	2cc
[2G	[2d	[2g	[2b
=57	=57	=57	=57
2G]	2d]	2g]	2b]
2E	2e	2g	2cc#
2.D	2.f#	2.a	2.dd
4D	4f#	4a	4dd
=58	=58	=58	=58
2D	2f#	2a	2dd
2G	2g	2b	2dd
1C	1g	1cc	1ee-
=59	=59	=59	=59
1G	2g	2b-	2dd
.	2g	2g	2b-
1r	2.f	2.a	2.cc
.	4f	4a	4cc
=60	=60	=60	=60
0r	2f	2a	2cc
.	2d	1b-	2dd
.	1e-	.	1g
.	.	[2g	.
=61	=61	=61	=61
1r	1d	2g]	1a
.	.	2f#	.
1G	1d	2r	1b-
.	.	[2g	.
=62	=62	=62	=62
1D	1d	2g]	1a
.	.	1f	.
1E-	1B-	.	1g
.	.	[2e-	.
=63	=63	=63	=63
1BB-	2B-	2e-]	1f
.	1B-	2d	.
2F	.	2c	2f
2F	2A	2c	2f
=64	=64	=64	=64
0BB-	0B-	2d	2f
.	.	2d	2ff
.	.	2f	2ff
.	.	2g	2dd
=65	=65	=65	=65
0r	0r	2a	2ff
.	.	2a	2ee
.	.	2.b-	2.dd
.	.	4b-	4dd
=66	=66	=66	=66
0r	1r	2a	2cc
.	.	1g	1b-
.	1d	.	.
.	.	2f	2a
=67	=67	=67	=67
0r	4B-	1b-	1dd
.	4c	.	.
.	4d	.	.
.	4e-	.	.
.	2f	2a	2cc
.	[2g	2g	2b-
=68	=68	=68	=68
0r	2g]	2b-	1dd
.	2f	2.a	.
.	1e-	.	4cc
.	.	4g	4b-
.	.	[2g	4b-
.	.	.	8a
.	.	.	8g
=69	=69	=69	=69
1r	1d	4g]	1a
.	.	8f	.
.	.	8e	.
.	.	2f#	.
1G	2r	1g	1b
.	2d	.	.
=70	=70	=70	=70
2G	2e	0r	0r
2A	2f	.	.
2B-	2d	.	.
2c	2e	.	.
=71	=71	=71	=71
1d	1f	2r	0r
.	.	2a	.
2d	2f	2a	.
2G	2g	2b-	.
=72	=72	=72	=72
2D	2f	2.a	0r
2d	2f	.	.
.	.	4f	.
2.c	2.e	2g	.
.	.	[2a	.
4A	4c	.	.
=73	=73	=73	=73
2B-	2d	2a]	0r
1c	1e-	4g	.
.	.	4f	.
.	.	2.g	.
4B-	4d	.	.
4A	4c	4a	.
=74	=74	=74	=74
1G	1d	1b-	2r
.	.	.	2dd
1D	2d	2a	2.ff
.	2d	2a	.
.	.	.	4ff
=75	=75	=75	=75
0r	2.a	2.cc	2ee
.	.	.	2cc
.	4a	4cc	.
.	2g	2b-	2dd
.	2e	2g	2ee
=76	=76	=76	=76
1r	2f#	2a	0dd
.	2g	2b-	.
2r	2d	2a	.
2D	2f#	2a	.
=77	=77	=77	=77
2.G	2.g	2.b-	2r
.	.	.	2dd
4G	4g	4b-	.
2F	2c	1a	2.ff
2D	[2d	.	.
.	.	.	4ff
=78	=78	=78	=78
1F	2d]	1a	2ff
.	2c	.	1ff
1C	1c	1g	.
.	.	.	2ee
=79	=79	=79	=79
4D	1A	1f	1dd
4E	.	.	.
4F	.	.	.
4G	.	.	.
2A	2r	2e	2cc
2D	2f	2a	2dd
=80	=80	=80	=80
2F	2f	2a	2cc
2G	2d	2g	2b-
[1E-	2e-	2.g	2.b-
.	2e-	.	.
.	.	4f	4a
=81	=81	=81	=81
2E-]	1.B-	2e-	2g
2BB-	.	2d	2f
2BB-	.	1d	1f
[2B-	[2d	.	.
=82	=82	=82	=82
2B-]	2d]	2B-	2g
2A	2c	2c	2a
1G	1B-	2.d	1b-
.	.	4e	.
=83	=83	=83	=83
1.F	1c	4f	2a
.	.	4g	.
.	.	1a	2cc
.	2r	.	2dd
2E	2c	2g	2ee
=84	=84	=84	=84
2D	2d	2f	2ff
2C#	2e	1a	2.ee
1D	2.f	.	.
.	.	.	4dd
.	.	2a	[2dd
.	8e	.	.
.	8d	.	.
=85	=85	=85	=85
1A	1e	1a	2dd]
.	.	.	2cc#
1D	1d	2f	2dd
.	.	[2d	[2ff
=86	=86	=86	=86
0r	0r	2d]	2ff]
.	.	2e	2ee
.	.	2f	2dd
.	.	2d	2dd
=87	=87	=87	=87
0r	2r	2a	2cc
.	1G	1b-	1dd
.	2A	2a	2cc
=88	=88	=88	=88
1r	2B-	2g	2b-
.	2G	2g	2b-
2r	1d	2f#	2a
[2G	.	[2g	[2b-
=89	=89	=89	=89
2G]	0r	2g]	2b-]
2A	.	2f	2a
2B-	.	2d	2f
2G	.	2e	2g
=90	=90	=90	=90
1d	2r	2.f	0a
.	1d	.	.
.	.	8e	.
.	.	8d	.
1G	.	1e	.
.	2c	.	.
=91	=91	=91	=91
2r	1f	1d	0a
1d	.	.	.
.	1e	1A	.
2c	.	.	.
=92	=92	=92	=92
2B-	2g	0r	0r
2A	2f	.	.
2c	2e	.	.
2B-	[2f	.	.
=93	=93	=93	=93
2A	4f]	0r	0r
.	4e	.	.
1B-	4d	.	.
.	4c	.	.
.	2d	.	.
2A	2c	.	.
=94	=94	=94	=94
1G	1B-	2r	1r
.	.	1g	.
1D	1A	.	1dd
.	.	2f	.
=95	=95	=95	=95
0r	0r	2e	2cc
.	.	2d	2b-
.	.	1f	2a
.	.	.	2a
=96	=96	=96	=96
0r	1r	2g	2b-
.	.	2e	2cc
.	2r	1d	2dd
.	[2d	.	[2ff
=97	=97	=97	=97
0r	2d]	2r	2ff]
.	2c	1g	2ee
.	2B-	.	2dd
.	2A	2a	2cc
=98	=98	=98	=98
2r	1B-	2f	2.dd
2d	.	2g	.
.	.	.	4ee
2d	2A	1a	2ff
2c	2e	.	2ee
=99	=99	=99	=99
2B-	2.f	2d	1r
2A	.	2a	.
.	4f	.	.
1B-	2f	2a	2r
.	2g	2g	2dd
=100	=100	=100	=100
1A	1a	2f	2dd
.	.	2e	2cc
1r	1d	1f	2b-
.	.	.	2a
=101	=101	=101	=101
1G	2r	1d	1b-
.	1g	.	.
1D	.	2r	1a
.	2f	[2a	.
=102	=102	=102	=102
2A	2e	2a]	2r
2B-	2d	2g	1dd
1A	1e	2a	.
.	.	2a	2cc
=103	=103	=103	=103
1D	1.d	1f	2b-
.	.	.	2a
1BB-	.	[1f	2b-
.	2d	.	2b-
=104	=104	=104	=104
1C	2.c	2f]	2a
.	.	2e-	2.g
.	4B-	.	.
1D	1A	1d	.
.	.	.	8f
.	.	.	8e
.	.	.	2f#
=105	=105	=105	=105
2r	2G	1d	0g
2G	2d	.	.
2B-	2d	1r	.
2c	2e	.	.
=106	=106	=106	=106
1d	1f	0r	0r
2c	2e	.	.
2B	2d	.	.
=107	=107	=107	=107
2c	2e	1r	1r
2A	2f#	.	.
1G	1g	2r	2r
.	.	2g	2g
=108	=108	=108	=108
0r	0r	2g	2b-
.	.	2a	2cc
.	.	2.b-	2.dd
.	.	4b-	4dd
=109	=109	=109	=109
1r	0r	2a	2cc
.	.	2f	2a
2r	.	2g	2b-
2A	.	2e	2cc
=110	=110	=110	=110
2.B-	2r	1d	1dd
.	2d	.	.
4B-	.	.	.
2B-	2.f	1r	1r
2A	.	.	.
.	4f	.	.
=111	=111	=111	=111
2F	2f	2r	1r
2G	2e	1g	.
1A	2c	.	2r
.	2c	2f#	[2cc
=112	=112	=112	=112
1G	1d	2g	2cc]
.	.	2g	2b
1r	1c	2a	2cc
.	.	2g	2cc
=113	=113	=113	=113
0r	0r	2b-	2dd
.	.	2a	2cc
.	.	2.g	2ee-
.	.	.	2dd
.	.	4f	.
=114	=114	=114	=114
1r	2r	4e-	1cc
.	.	4d	.
.	1g	2c	.
[1D	.	1d	2a
.	4f#	.	[2a
.	4e	.	.
=115	=115	=115	=115
2D]	2f#	2r	2a]
2D	2f#	1d	2a
1G	1g	.	1b
.	.	2d	.
=116	=116	=116	=116
1C	1g	2e	1cc
.	.	2e	.
2.c	2.e	2.g	2.cc
4c	4e	4a	4cc
=117	=117	=117	=117
2B-	2f	2b-	2dd
2G	2g	2b-	2ee
2F	2a	2cc	2ff
2F	2A	2cc	2ff
=118	=118	=118	=118
2F	2c	2a	2f
2E	2c	2g	2g
1F	1c	1f	1a
=119	=119	=119	=119
1D	1d	2f	2a
.	.	2d	2a
1r	1r	1g	1b-
=120	=120	=120	=120
0r	0r	1.f	2a
.	.	.	2cc
.	.	.	2.ff
.	.	2d	.
.	.	.	4ee
=121	=121	=121	=121
1r	1r	2b-	2dd
.	.	2a	2cc#
2r	2r	2g	[1dd
2D	2A	2f#	.
=122	=122	=122	=122
1G	1B-	1g	1dd]
[1F	2A	1r	1r
.	2c	.	.
=123	=123	=123	=123
2F]	2.f	0r	1r
2D	.	.	.
.	4e	.	.
2B-	2d	.	2r
2A	2c#	.	2a
=124	=124	=124	=124
2G	0d	2r	2b-
2F#	.	2a	2a
1G	.	1b-	2r
.	.	.	2dd
=125	=125	=125	=125
1D	2r	2a	2.ff
.	2d	2f	.
.	.	.	4ee
2D	2f	2.a	2dd
2A	2e	.	2cc#
.	.	4g	.
=126	=126	=126	=126
2B-	2d	2f	2dd
2A	2c	2f	2a
2G	2d	2g	2b-
2F#	2A	2d	[2a
=127	=127	=127	=127
1G	2.B-	1d	4a]
.	.	.	4g
.	.	.	1g
.	8A	.	.
.	8G	.	.
1D	1A	2.d	.
.	.	.	2f#
.	.	4c	.
=128	=128	=128	=128
2.E-	2G	4B-	2g
.	.	4A	.
.	1e-	2G	2b-
4D	.	.	.
2C	.	[1g	2cc
2BB	2d	.	2dd
=129	=129	=129	=129
0C	1c	0g]	2.ee-
.	.	.	4dd
.	1e-	.	1cc
=130	=130	=130	=130
[0G	[0d	[0g	[0b
=131	=131	=131	=131
0G]	0d]	0g]	0b]
==	==	==	==
*-	*-	*-	*-
!!!CDT: 1525/^1526/-1594/2/2
!!!OCY: Italia
!!!AGN: Mass (Free)
!!!AST: renaissance, vocal
!!!ASW: Popular Song
!!!PWK: Masses, Book 4
!!!RNB: Cadence finals: D
!!!YOR: Le Opere Complete, v. 10, p. 19
!!!YOO: Rome, Italy: Fratelli Scalera
!!!END: 1992//
!!!EED: John Miller
!!!YEC: Copyright 2000, John Miller
!!!YEN: United States of America
!!!YEM: Rights to all derivative electronic formats reserved.
!!!YEM: Refer to licensing agreement for further details.
!!!YEM: This file must be accompanied by the licensing agreement.
!!!YEM: A copy of the licensing agreement may be found at http://www.music-cog.ohio-state.edu/HumdrumDatabases/Palestrina/license.txt
!!!EMD: converted to Humdrum by Bret Aarden
